X:1
L:1/8
Q:1/4=70
M:2/4
K:G
""_vb"" d | dB c(A/G/) | (E<A) (G>E) | (D>E) (.GA/B/) | c3 e | dB .c(A/G/) | (E<A) (G>E) | 
 (D>E) (.G.G) | G3 || D | (.G.G) (G/>A/) (B/c/) | d2 (.ed/c/) | (BA) (.GA/B/) | c3 e | 
 dB .c(A/G/) | (E<A) (G>E) | (D>E) (.G.G) | G3 |]
